X: 131
T: MISS LAMONT OF LAMONT
C: Wm SHEPHERD
R: Strathspey
B: Glen Collection p.13 #1
Z: 2011 John Chambers <jc:trillian.mit.edu>
M: C
L: 1/16
V: 1 middle=B clef=treble
V: 2 middle=d clef=bass
%%score {1 | 2}
K: G
%
V: 1
D2 |\
G3A B2G2 c3d e2c2 | B3c edcB AGFE F2D2 | G3B E2FG A3c B,3C | A,3c (BA)GF G2D2 G,2D2 |
G3A B2G2 c3d e2c2 | B3c edcB AGFE F2D2 | B,3G C3A D3B E3c | A,cAF GDEC B,2G,2G,2 ||
d2 |\
g3a b3g f3g a3d | e2(3efg B2gf edcB c3A | g3a b3g f3g a3d | B2ge fde^c d4 d2=cB |
c3a A2Bc B3g G2AB | c3E A3G F3E F3D | G3B E2FG A3c B,3C | A,cAF GDEC B,2G,2G,2 |]
%
V: 2
z2 |\
[g4d4G4] [g4d4G4] [f4d4G4] [f4d4G4] | [g4d4G4] [g4d4G4] d4 [a4f4] |\
[g4d4G4] [g4d4G4] c4 [a4e4] | d4 [a4f4] [b4g4] G4 |
[g4d4G4] [g4d4G4] [f4d4G4] [f4d4G4] | [g4d4G4] [g4d4G4] d4 [a4f4] |\
[g4d4] [f4d4] [g4d4] [g4c4] | [f4d4] d4 G4 [d2B2G2] ||
z2 |\
[d'4b4g4] [d'4b4g4] [d'4a4d4] [d'4f4d4] | [b4g4] [b4g4e4] [c'4g4c4] [a4f4d4] |\
G4 [d'4b4g4] [d'4a4d4] [d'4f4d4] | [b4g4] a2g2 [f4d4] [a4d4] |
f4 [d'4a4] g4 [d'4b4] | c4 [a4e4] d4 [a4f4] |\
[g4d4G4] [g4d4G4] c4 [g4e4] | [f4d4] d4 G4 [d2B2G2] |]
